findly-builder/apps/searchassist/src/assets/icons/resultTemplate/star-unfill.svg

<svg width="8" height="8" viewBox="0 0 8 8" fill="none" xmlns="http://www.w3.org/2000/svg">
<path d="M4.23568 0.90595C4.14808 0.698039 3.85341 0.698008 3.76579 0.905909C3.4499 1.65541 2.95724 2.82526 2.95724 2.82526L0.977891 3.04029C0.761465 3.0638 0.67203 3.33008 0.830402 3.47941L2.31997 4.88398L1.89931 6.94317C1.85473 7.16136 2.09164 7.32787 2.28191 7.2121L4.00078 6.1662L5.71801 7.21203C5.9082 7.32786 6.14514 7.16152 6.10074 6.94334L5.6816 4.88398L7.1697 3.47932C7.32794 3.32995 7.23848 3.06381 7.02213 3.04029L5.04432 2.82526L4.23568 0.90595ZM4.00078 1.66051L4.69183 3.29912L6.42045 3.48628L5.12598 4.70877L5.48444 6.47282L4.00078 5.56889L2.51513 6.47282L2.87559 4.70877L1.58311 3.48628L3.30974 3.29912L4.00078 1.66051Z" fill="#202124"/>
</svg>

<svg width="8" height="8" fill="none" xmlns="http://www.w3.org/2000/svg"><path d="M4.236.906a.255.255 0 0 0-.47 0l-.809 1.92-1.98.214a.255.255 0 0 0-.147.44l1.49 1.404-.42 2.06a.255.255 0 0 0 .382.268L4 6.166l1.717 1.046c.19.116.427-.05.383-.269l-.42-2.059 1.49-1.405a.255.255 0 0 0-.148-.439l-1.978-.215-.808-1.92ZM4 1.661l.69 1.638 1.73.187L5.125 4.71l.358 1.764L4 5.57l-1.486.904.36-1.764-1.292-1.223L3.31 3.3 4 1.661Z" fill="#202124"/></svg>
